X:1
T:Title
%%score { 1 | 2 }
L:1/8
Q:1/4=108
M:3/4
K:G
V:1 treble nm="Grand Piano"
V:2 bass 
V:1
 [B,D]2 [B,G]2 [CA]2 | [DB]6 | [CA]2 [B,G]2 [B,D]2 | [CE]6 | [DF]2 [EG]2 [CE]2 | [B,D]4 [DG]2 | %6
w: Chas.~H.~Gabriel * *||||||
 [^CB]4 [CA]2 | A6 | A2 B2 c2 | [DB]6 | [CA]2 [B,G]2 [B,D]2 | [CE]6 | [DF]2 [EG]2 E2 | D4 [Dc]2 | %14
w: ||||||||
 [DB]4 [CDA]2 | [B,DG]6 | d2 B2 c2 | d6 | B2 G2 A2 | B6 | [FA]2 [FA]2 [GB]2 | [Ac]2 [GB]2 [FA]2 | %22
w: ||||||||
 B>B B2 c2 | d6 | d2 B2 c2 | d6 | B2 G2 D2 | E6 | [DF]2 [EG]2 E2 | D4 [Dc]2 | [DB]4 [CDA]2 | %31
w: |||||||||
 [B,DG]6 |] %32
w: |
V:2
 [G,,G,]2 [G,,G,]2 [G,,G,]2 | [G,,G,]6 | [G,,G,]2 [G,,G,]2 [G,,G,]2 | [C,G,]6 | %4
 [C,G,]2 [C,G,]2 [C,G,]2 | [G,,G,]4 [B,,G,]2 | [A,,G,]4 [A,,G,]2 | [D,F,D]6 | %8
 [D,F,D]2 [D,G,D]2 [D,A,D]2 | [G,,G,]6 | [G,,G,]2 [G,,G,]2 [G,,G,]2 | [C,G,]6 | %12
 [C,G,]2 [C,G,]2 [C,G,C]2 | [B,,G,]4 [A,,F,]2 | [D,G,]4 D,2 | G,,6 | [G,B,G]2 [G,DG]2 [G,A,G]2 | %17
 [G,B,G]6 | [G,DG]2 [G,B,D]2 [G,CD]2 | [G,DG]6 | [D,D]2 [D,D]2 [D,D]2 | [D,D]2 [D,D]2 [D,D]2 | %22
 [G,DG]>[G,DG] [G,DG]2 [G,A,G]2 | [G,B,G]6 | [G,B,G]2 [G,DG]2 [G,A,G]2 | [G,B,G]6 | %26
 [G,DG]2[K:bass] [G,B,D]2 [B,,G,]2 | [C,G,C]6 | [C,G,]2 [C,C]2 [C,G,C]2 | [B,,G,]4 [A,,F,]2 | %30
 [D,G,]4 D,2 | G,,6 |] %32

